icon/gr/facebook-option.svg

<svg xmlns="http://www.w3.org/2000/svg" viewBox="0 0 24 24" height="1em" width="1em">
  <path fill="#3B5998" fill-rule="evenodd" d="M9.94474914,22 L9.94474914,13.1657526 L7,13.1657526 L7,9.48481614 L9.94474914,9.48481614 L9.94474914,6.54006699 C9.94474914,3.49740494 11.8713513,2 14.5856738,2 C15.8857805,2 17.0033128,2.09717672 17.3287076,2.13987558 L17.3287076,5.32020466 L15.4462767,5.32094085 C13.9702212,5.32094085 13.6256856,6.02252733 13.6256856,7.05171716 L13.6256856,9.48481614 L17.306622,9.48481614 L16.5704347,13.1657526 L13.6256856,13.1657526 L13.6845806,22"/>
</svg>

<svg xmlns="http://www.w3.org/2000/svg" width="24" height="24"><path fill="#3B5998" fill-rule="evenodd" d="M9.945 22v-8.834H7V9.485h2.945V6.54c0-3.043 1.926-4.54 4.64-4.54 1.3 0 2.418.097 2.744.14v3.18h-1.883c-1.476 0-1.82.703-1.82 1.732v2.433h3.68l-.736 3.68h-2.944L13.685 22"/></svg>
